X:1
T:Title
%%score { 1 | 2 }
L:1/8
M:6/4
K:Bb
V:1 treble nm="Grand Piano"
V:2 bass 
V:1
 z6 z4[Q:1/4=111] [DF]2 | [DF]4 [DB]2 [DB]4 [DB]2 | c3 d c2 [DB]4 B2 | e4 e2 [Fd]3 [Fc] [FB]2 | %4
 d6 c4 F2 | [DF]4 [DB]2 [DB]4 [DB]2 | [=EB]3 [Ec] [GB]2 A4 c2 | c3 B A2 [CFA]3 [B,=EG] [A,F]2 | %8
 [B,=EG]6 .F6 | c3 d c2 [DB]4 F2 | [Ae]3 [Af] e2 d4 d2 | d3 c B2 [Ff]3 [Fe] [Fd]2 | d6 c4 F2 | %13
 [DF]4 [DB]2 [DB]4 [DB]2 | c3 d c2 B4 [Ge]2 | d3 c B2 B2 A2 B2 |[M:5/4] c6 [DB]4 |] %17
V:2
 z6 z4 [B,,B,]2 | [B,,B,]4 [B,,F,]2 [B,,F,]4 [B,,F,]2 | %2
 [F,A,E]3 [F,A,F] [F,A,E]2 [B,,B,]4[K:treble] [B,D]2 | %3
 [B,G]4 [B,G]2[K:bass] [B,,B,]3 [C,A,] [D,B,]2 | [F,B,F]6 [F,A,F]4 [F,A,E]2 | %5
 [B,,B,]4 [B,,F,]2 [B,,F,]4 [B,,B,]2 | [C,G,]3 [C,G,] [C,C]2 [F,CF]4 [F,A,F]2 | %7
 [F,A,F]3 [F,DF] [F,CF]2 C,3 C, C,2 | C,6 .[F,A,]6 | [F,A,E]3 [F,A,F] [F,A,E]2 [B,,B,]4 [D,B,]2 | %10
 [F,C]3 [F,C][K:treble] [A,CF]2 [B,F]4 [B,DF]2 | %11
 [B,FB]3 [B,EF] [B,DF]2[K:bass] [D,B,]3 [C,A,] [B,,B,]2 | [F,B,F]6 [F,A,F]4 [F,A,E]2 | %13
 [B,,B,]4 [B,,F,]2 [B,,F,]4 [B,,B,]2 | [F,A,E]3 [F,A,F] [F,A,E]2 [G,B,D]4 [E,B,]2 | %15
 [F,B,F]3 [F,E] [F,D]2 [F,DF]2 [F,CE]2 [F,B,D]2 |[M:5/4] [F,A,E]6 [B,,B,]4 |] %17

